X:1
T: Zorinski
N:
C:
S:
A:
O:
R:
M:4/4
K:Em
I:speed 200
%W: A1
% voice 1 (1 lines, 33 notes)
K:Em
M:4/4
L:1/16
e4 b4 b4 a4 |g4 f2 g2 e4 e4 |f4 g4 a4 b4 |g4 f2 g2 e4 B4 |e4 b4 b4 a4 |g4 f2 g2 e4 e4 |f4 a4 g4 e4 |f8 z8 |
%W: A2
% voice 1 (1 lines, 33 notes)
e4 b4 b4 a4 |g4 f2 g2 e4 e4 |f4 g4 a4 b4 |g4 f2 g2 e4 B4 |e4 b4 b4 a4 |g4 f2 g2 e4 e4 |f4 a4 g4 e4 |f8 z8 |
%W: B1                                                      B2
% voice 1 (1 lines, 16 notes)
B12 e4 |B12 e4 |B4 A4 G4 F4 |B12 e4 |B12 e4 |B4 A4 G4 F4 |
%W: C1
% voice 1 (1 lines, 17 notes)
G4 F2 G2 E2 F2 G2 A2 |B12 e4 |B12 e4 |B4 A4 G4 F4 |E8 E8 |
%W: C2
% voice 1 (1 lines, 17 notes)
G4 F2 G2 E2 F2 G2 A2 |B12 e4 |B12 e4 |B4 A4 G4 F4 |E8 E8 ||
